icon-svg/mqttx.svg

<svg xmlns="http://www.w3.org/2000/svg" fill="#44739e" viewBox="0 0 24 24"><path fill-rule="evenodd" d="M12 2C5.4623 1.7498.2312 8.9497 2.4894 15.0902c1.782 6.2926 10.247 9.0511 15.3885 5 5.4361-3.6404 5.4361-12.54 0-16.1804C16.1852 2.6743 14.0956 1.9954 12 2m5.2988 2 .1075 3.5664-2.5958 2.5957 2.5958 2.8106-.1075 3.5683-6.164-6.162zM6.7012 7.459l6.164 6.162L6.7012 20l-.1075-3.5664 2.5958-2.5957-2.5958-2.8106z"/></svg>

<svg xmlns="http://www.w3.org/2000/svg" viewBox="0 0 24 24" width="24" height="24" fill="#44739e">
  <path fill-rule="evenodd" d="M12 2 A10 10 0 1 1 12 22 A10 10 0 1 1 12 2 Z M 17.298 16.541 L 11.135 10.378 L 17.298 4 L 17.406 7.567 L 14.811 10.162 L 17.406 12.973 Z M 6.702 20 L 6.594 16.433 L 9.189 13.838 L 6.594 11.027 L 6.702 7.459 L 12.865 13.622 Z"/>
</svg>
